X: 10891
T: Drowsy Dragon
R: jig
M: 6/8
K: Eminor
|:GBG ^A2A|GBG ^A2A|dBG F2E|DEF B2A|
GBG ^A2A|GBG ^A2A|dBG ABA|G2B G3:|
|:Ace ^dec|BGD BGD|Ace ^dec|B3 B3|
Ace ^dec|BGD BGD|EFG F2D|E2 G E3:|

